logos/aws-kinesis.svg

<?xml version="1.0" encoding="UTF-8"?>
<svg width="256px" height="256px" viewBox="0 0 256 256" version="1.1" xmlns="http://www.w3.org/2000/svg" xmlns:xlink="http://www.w3.org/1999/xlink" preserveAspectRatio="xMidYMid">
    <title>AWS Kinesis</title>
    <defs>
        <linearGradient x1="0%" y1="100%" x2="100%" y2="0%" id="linearGradient-1">
            <stop stop-color="#4D27A8" offset="0%"></stop>
            <stop stop-color="#A166FF" offset="100%"></stop>
        </linearGradient>
    </defs>
    <g>
        <rect fill="url(#linearGradient-1)" x="0" y="0" width="256" height="256"></rect>
        <path d="M60.8,198.4 L67.2,198.4 C67.2,171.5008 84.688,144 214.4,144 L214.4,137.6 C79.0496,137.6 60.8,168.3328 60.8,198.4 M80,217.6 L86.4,217.6 C86.4,193.3888 86.4,156.8 214.4,156.8 L214.4,150.4 C155.7216,150.4 117.5296,157.9488 97.632,173.4784 C80,187.2384 80,204.7872 80,217.6 M48,83.2 L41.6,83.2 C41.6,106.8672 73.7248,121.856 137.2576,128 C73.7248,134.144 41.6,149.1328 41.6,172.8 L48,172.8 C48,157.264 69.6192,131.2 214.4,131.2 L214.4,124.8 C69.6192,124.8 48,98.736 48,83.2 M67.2,57.6 L60.8,57.6 C60.8,87.6672 79.0496,118.4 214.4,118.4 L214.4,112 C84.688,112 67.2,84.4992 67.2,57.6 M214.4,99.2 L214.4,105.6 C155.7216,105.6 117.5296,98.0512 97.632,82.5216 C80,68.7616 80,51.2128 80,38.4 L86.4,38.4 C86.4,62.6112 86.4,99.2 214.4,99.2" fill="#FFFFFF"></path>
    </g>
</svg>

<svg preserveAspectRatio="xMidYMid" viewBox="0 0 256 256" xmlns="http://www.w3.org/2000/svg">
  <defs>
    <linearGradient id="aws-kinesis_svg__a" x1="0%" x2="100%" y1="100%" y2="0%">
      <stop offset="0%" stop-color="#4D27A8"/>
      <stop offset="100%" stop-color="#A166FF"/>
    </linearGradient>
  </defs>
  <path fill="url(#aws-kinesis_svg__a)" d="M0 0h256v256H0z"/>
  <path fill="#FFF" d="M60.8 198.4h6.4c0-26.9 17.488-54.4 147.2-54.4v-6.4c-135.35 0-153.6 30.733-153.6 60.8M80 217.6h6.4c0-24.211 0-60.8 128-60.8v-6.4c-58.678 0-96.87 7.549-116.768 23.078C80 187.238 80 204.788 80 217.6M48 83.2h-6.4c0 23.667 32.125 38.656 95.658 44.8-63.533 6.144-95.658 21.133-95.658 44.8H48c0-15.536 21.62-41.6 166.4-41.6v-6.4C69.62 124.8 48 98.736 48 83.2m19.2-25.6h-6.4c0 30.067 18.25 60.8 153.6 60.8V112C84.688 112 67.2 84.5 67.2 57.6m147.2 41.6v6.4c-58.678 0-96.87-7.549-116.768-23.078C80 68.762 80 51.212 80 38.4h6.4c0 24.211 0 60.8 128 60.8"/>
</svg>
